flaticon/sewing/sewing-machine-1.svg

<svg xmlns="http://www.w3.org/2000/svg" width="32" height="32" viewBox="0 0 24 24">
    <path d="M16 17.398438C15.761719 17.398438 15.601562 17.558594 15.601562 17.800781 15.601562 18.039062 15.761719 18.199219 16 18.199219 16.238281 18.199219 16.398438 18.039062 16.398438 17.800781 16.398438 17.558594 16.238281 17.398438 16 17.398438zM16 10.601562C15.761719 10.601562 15.601562 10.761719 15.601562 11 15.601562 11.238281 15.761719 11.398438 16 11.398438 16.238281 11.398438 16.398438 11.238281 16.398438 11 16.398438 10.761719 16.238281 10.601562 16 10.601562zM17.601562 17.398438C17.359375 17.398438 17.199219 17.558594 17.199219 17.800781 17.199219 18.039062 17.359375 18.199219 17.601562 18.199219 17.839844 18.199219 18 18.039062 18 17.800781 18 17.558594 17.839844 17.398438 17.601562 17.398438zM17.601562 17.398438"/>
    <path d="M 22.800781 18.601562 C 23.480469 18.601562 24 18.078125 24 17.398438 L 24 12.601562 C 24 11.921875 23.480469 11.398438 22.800781 11.398438 C 22.121094 11.398438 21.601562 11.921875 21.601562 12.601562 L 21.601562 14.601562 L 21.199219 14.601562 L 21.199219 12.640625 C 21.199219 12.480469 21.199219 12.320312 21.199219 12.199219 C 21.078125 10.121094 20 8.238281 18.28125 7 C 17.21875 6.261719 16.027344 5.816406 14.800781 5.695312 L 14.800781 4.199219 L 16 4.199219 C 16.238281 4.199219 16.398438 4.039062 16.398438 3.800781 C 16.398438 3.558594 16.238281 3.398438 16 3.398438 L 15.601562 3.398438 L 15.601562 1.800781 L 16 1.800781 C 16.238281 1.800781 16.398438 1.640625 16.398438 1.398438 C 16.398438 1.160156 16.238281 1 16 1 L 12.800781 1 C 12.558594 1 12.398438 1.160156 12.398438 1.398438 C 12.398438 1.640625 12.558594 1.800781 12.800781 1.800781 L 13.199219 1.800781 L 13.199219 3.398438 L 12.800781 3.398438 C 12.558594 3.398438 12.398438 3.558594 12.398438 3.800781 C 12.398438 4.039062 12.558594 4.199219 12.800781 4.199219 L 14 4.199219 L 14 5.660156 C 13.359375 5.671875 12.714844 5.769531 12.078125 5.960938 L 7.878906 7.199219 C 7.398438 7.320312 6.921875 7.398438 6.398438 7.398438 L 6.121094 7.398438 C 5.320312 7.398438 4.558594 7.199219 3.921875 6.800781 C 3.558594 6.601562 3.28125 6.28125 3 5.800781 C 2.679688 5.320312 2.160156 5 1.601562 5 C 0.71875 5 0 5.71875 0 6.601562 L 0 15.800781 C 0 16.542969 0.511719 17.171875 1.199219 17.347656 L 1.199219 18.601562 C 1.199219 18.839844 1.359375 19 1.601562 19 C 1.839844 19 2 18.839844 2 18.601562 L 2 17.347656 C 2.6875 17.171875 3.199219 16.542969 3.199219 15.800781 L 3.199219 15 C 3.199219 13.878906 4.078125 13 5.199219 13 L 10.800781 13 C 11.199219 13 11.640625 13.121094 12 13.320312 C 12.878906 13.839844 13.320312 14.921875 13.039062 15.960938 L 12.078125 19.800781 L 1.601562 19.800781 C 0.71875 19.800781 0 20.519531 0 21.398438 C 0 22.28125 0.71875 23 1.601562 23 L 22.398438 23 C 23.28125 23 24 22.28125 24 21.398438 C 24 20.519531 23.28125 19.800781 22.398438 19.800781 L 21.199219 19.800781 L 21.199219 15.398438 L 21.601562 15.398438 L 21.601562 17.398438 C 21.601562 18.078125 22.121094 18.601562 22.800781 18.601562 Z M 14 1.800781 L 14.800781 1.800781 L 14.800781 3.398438 L 14 3.398438 Z M 22.398438 20.601562 C 22.839844 20.601562 23.199219 20.960938 23.199219 21.398438 C 23.199219 21.839844 22.839844 22.199219 22.398438 22.199219 L 1.601562 22.199219 C 1.160156 22.199219 0.800781 21.839844 0.800781 21.398438 C 0.800781 20.960938 1.160156 20.601562 1.601562 20.601562 Z M 12.921875 19.800781 L 13.839844 16.160156 C 14.199219 14.761719 13.601562 13.320312 12.441406 12.640625 C 11.960938 12.359375 11.398438 12.199219 10.839844 12.199219 L 5.238281 12.199219 C 3.679688 12.199219 2.441406 13.441406 2.441406 15 L 2.441406 15.800781 C 2.441406 16.238281 2.078125 16.601562 1.640625 16.601562 C 1.199219 16.601562 0.839844 16.238281 0.839844 15.800781 L 0.839844 6.601562 C 0.839844 6.160156 1.199219 5.800781 1.640625 5.800781 C 1.921875 5.800781 2.160156 5.960938 2.320312 6.199219 C 2.679688 6.800781 3.039062 7.199219 3.519531 7.480469 C 4.320312 7.960938 5.199219 8.199219 6.121094 8.199219 L 6.398438 8.199219 C 7 8.199219 7.558594 8.121094 8.121094 7.960938 L 12.320312 6.71875 C 14.199219 6.160156 16.199219 6.519531 17.800781 7.640625 C 19.359375 8.71875 20.28125 10.398438 20.398438 12.238281 C 20.398438 12.359375 20.398438 12.480469 20.398438 12.601562 L 20.398438 19.800781 Z M 23.199219 15.398438 L 23.199219 16.199219 L 22.398438 16.199219 L 22.398438 15.398438 Z M 22.398438 14.601562 L 22.398438 13.800781 L 23.199219 13.800781 L 23.199219 14.601562 Z M 22.800781 17.800781 C 22.558594 17.800781 22.398438 17.640625 22.398438 17.398438 L 22.398438 17 L 23.199219 17 L 23.199219 17.398438 C 23.199219 17.640625 23.039062 17.800781 22.800781 17.800781 Z M 22.800781 12.199219 C 23.039062 12.199219 23.199219 12.359375 23.199219 12.601562 L 23.199219 13 L 22.398438 13 L 22.398438 12.601562 C 22.398438 12.359375 22.558594 12.199219 22.800781 12.199219 Z M 22.800781 12.199219"/>
    <path d="M16 9C14.878906 9 14 9.878906 14 11 14 12.121094 14.878906 13 16 13 17.121094 13 18 12.121094 18 11 18 9.878906 17.121094 9 16 9zM16 12.199219C15.320312 12.199219 14.800781 11.679688 14.800781 11 14.800781 10.320312 15.320312 9.800781 16 9.800781 16.679688 9.800781 17.199219 10.320312 17.199219 11 17.199219 11.679688 16.679688 12.199219 16 12.199219zM5.601562 9.800781L8 9.800781C8.238281 9.800781 8.398438 9.640625 8.398438 9.398438 8.398438 9.160156 8.238281 9 8 9L5.601562 9C5.359375 9 5.199219 9.160156 5.199219 9.398438 5.199219 9.640625 5.359375 9.800781 5.601562 9.800781zM9.601562 10.601562L5.601562 10.601562C5.359375 10.601562 5.199219 10.761719 5.199219 11 5.199219 11.238281 5.359375 11.398438 5.601562 11.398438L9.601562 11.398438C9.839844 11.398438 10 11.238281 10 11 10 10.761719 9.839844 10.601562 9.601562 10.601562zM9.601562 10.601562"/>
</svg>

<svg xmlns="http://www.w3.org/2000/svg" width="32" height="32" viewBox="0 0 24 24">
    <path d="M16 17.398c-.238 0-.398.16-.398.403 0 .238.16.398.398.398.238 0 .398-.16.398-.398 0-.242-.16-.403-.398-.403zm0 0M16 10.602c-.238 0-.398.16-.398.398 0 .238.16.398.398.398.238 0 .398-.16.398-.398 0-.238-.16-.398-.398-.398zm0 0M17.602 17.398c-.243 0-.403.16-.403.403 0 .238.16.398.403.398.238 0 .398-.16.398-.398 0-.242-.16-.403-.398-.403zm0 0"/>
    <path d="M22.8 18.602c.68 0 1.2-.524 1.2-1.204v-4.796c0-.68-.52-1.204-1.2-1.204-.679 0-1.198.524-1.198 1.204v2h-.403V12.64v-.442C21.08 10.121 20 8.24 18.281 7a7.365 7.365 0 0 0-3.48-1.305V4.2H16c.238 0 .398-.16.398-.398 0-.242-.16-.403-.398-.403h-.398V1.801H16c.238 0 .398-.16.398-.403 0-.238-.16-.398-.398-.398h-3.2c-.241 0-.402.16-.402.398 0 .243.16.403.403.403h.398v1.597h-.398c-.242 0-.403.16-.403.403 0 .238.16.398.403.398H14V5.66c-.64.012-1.285.11-1.922.3l-4.2 1.24c-.48.12-.956.198-1.48.198h-.277c-.8 0-1.562-.199-2.2-.597-.362-.2-.64-.52-.921-1C2.68 5.32 2.16 5 1.602 5 .719 5 0 5.719 0 6.602V15.8c0 .742.512 1.37 1.2 1.547v1.254c0 .238.16.398.402.398.238 0 .398-.16.398-.398v-1.254A1.601 1.601 0 0 0 3.2 15.8V15c0-1.121.878-2 2-2h5.6c.4 0 .84.121 1.2.32.879.52 1.32 1.602 1.04 2.64l-.962 3.84H1.602C.719 19.8 0 20.52 0 21.399 0 22.281.719 23 1.602 23h20.796c.883 0 1.602-.719 1.602-1.602 0-.878-.719-1.597-1.602-1.597H21.2v-4.403h.403v2c0 .68.52 1.204 1.199 1.204zM14 1.8h.8v1.597H14zm8.398 18.8c.442 0 .801.36.801.797 0 .442-.36.801-.8.801H1.601c-.442 0-.801-.36-.801-.8 0-.438.36-.797.8-.797zm-9.476-.8l.918-3.64c.36-1.4-.238-2.84-1.399-3.52a3.206 3.206 0 0 0-1.601-.442H5.238A2.783 2.783 0 0 0 2.441 15v.8c0 .438-.363.802-.8.802A.804.804 0 0 1 .84 15.8V6.6c0-.44.36-.8.8-.8.282 0 .52.16.68.398.36.602.72 1 1.2 1.281.8.48 1.68.72 2.601.72h.277c.602 0 1.16-.079 1.723-.24l4.2-1.241c1.878-.559 3.878-.2 5.48.922a6.01 6.01 0 0 1 2.597 4.597v7.563zm10.277-4.403v.801h-.8v-.8zm-.8-.796V13.8h.8v.8zM22.8 17.8c-.242 0-.403-.16-.403-.403V17h.801v.398c0 .243-.16.403-.398.403zm0-5.602c.238 0 .398.16.398.403V13h-.8v-.398c0-.243.16-.403.402-.403zm0 0"/>
    <path d="M16 9c-1.121 0-2 .879-2 2s.879 2 2 2 2-.879 2-2-.879-2-2-2zm0 3.2c-.68 0-1.2-.52-1.2-1.2 0-.68.52-1.2 1.2-1.2.68 0 1.2.52 1.2 1.2 0 .68-.52 1.2-1.2 1.2zm0 0M5.602 9.8H8c.238 0 .398-.16.398-.402C8.398 9.16 8.238 9 8 9H5.602c-.243 0-.403.16-.403.398 0 .243.16.403.403.403zm0 0M9.602 10.602h-4c-.243 0-.403.16-.403.398 0 .238.16.398.403.398h4c.238 0 .398-.16.398-.398 0-.238-.16-.398-.398-.398zm0 0"/>
</svg>
